**harmony	**harte	**kern	**silbe	**rhyme	**timestamp	**phrase
*M4/4	*M4/4	*ICvox	*	*	*	*
*	*	*VRlead	*	*	*	*
*	*	*Hstimme	*	*	*	*
*A:	*A:	*A:	*	*	*	*
*	*	*M4/4	*	*	*	*
*	*	*clefF4	*	*	*	*
1r;	1r	r;	.	.	0	.
=1	=1	=1	=1	=1	=1	=1
*>Letter>A	*>Letter>A	*>Letter>A	*>Letter>A	*>Letter>A	*>Letter>A	*>Letter>A
*>Label>Intro	*>Label>Intro	*>Label>Intro	*>Label>Intro	*>Label>Intro	*>Label>Intro	*>Label>Intro
1AM	A:maj	1r	.	.	0.395	newline
=2	=2	=2	=2	=2	=2	=2
1EM	E:maj	1r	.	.	2.259	.
=3	=3	=3	=3	=3	=3	=3
1F#m	F#:min	1r	.	.	4.123	.
=4	=4	=4	=4	=4	=4	=4
1DM	D:maj	1r	.	.	5.988	.
=5	=5	=5	=5	=5	=5	=5
1AM	A:maj	1r	.	.	7.852	newline
=6	=6	=6	=6	=6	=6	=6
1EM	E:maj	1r	.	.	9.717	.
=7	=7	=7	=7	=7	=7	=7
1F#m	F#:min	1r	.	.	11.582	.
=8	=8	=8	=8	=8	=8	=8
1DM	D:maj	2r	.	.	13.447	.
.	.	4r	.	.	.	.
.	.	8r	.	.	.	.
.	.	[8A	We	.	.	.
=9	=9	=9	=9	=9	=9	=9
*>Letter>A	*>Letter>A	*>Letter>A	*>Letter>A	*>Letter>A	*>Letter>A	*>Letter>A
*>Label>Verse	*>Label>Verse	*>Label>Verse	*>Label>Verse	*>Label>Verse	*>Label>Verse	*>Label>Verse
1AM	A:maj	8A]	_	.	15.312	newline
.	.	8A	get	.	.	.
.	.	8A	in	.	.	.
.	.	8A	the	.	.	.
.	.	4.A	car	.	.	.
.	.	[8B	out	.	.	.
=10	=10	=10	=10	=10	=10	=10
1EM	E:maj	8B]	_	.	17.121	.
.	.	8B	side	.	.	.
.	.	8B	your	.	.	.
.	.	[8B	house	A	.	.
.	.	4B]	_	.	.	.
.	.	8B	oh	.	.	.
.	.	[8c#	_	.	.	.
=11	=11	=11	=11	=11	=11	=11
1F#m	F#:min	4c#]	_	.	18.929	.
.	.	8c#	I	.	.	.
.	.	8c#	can	.	.	.
.	.	8c#	feel	.	.	.
.	.	8c	the	.	.	.
.	.	8c#	heat	.	.	.
.	.	8c	a	.	.	.
=12	=12	=12	=12	=12	=12	=12
1DM	D:maj	8c#	com	.	20.738	.
.	.	8c#	in'	.	.	.
.	.	8B	_	.	.	.
.	.	[8A	round	A	.	.
.	.	2A]	_	.	.	.
=13	=13	=13	=13	=13	=13	=13
1AM	A:maj	8r	.	.	22.547	newline
.	.	8A	I	.	.	.
.	.	8A	go	.	.	.
.	.	8A	to	.	.	.
.	.	8A	put	.	.	.
.	.	4A	my	.	.	.
.	.	[8B	arm	.	.	.
=14	=14	=14	=14	=14	=14	=14
1EM	E:maj	4B]	_	.	24.368	.
.	.	8B	a	.	.	.
.	.	[8B	round	.	.	.
.	.	8B]	_	.	.	.
.	.	8A	you	.	.	.
.	.	8A	and	.	.	.
.	.	8A	you	.	.	.
=15	=15	=15	=15	=15	=15	=15
1F#m	F#:min	8r	.	.	26.19	.
.	.	8c#	give	.	.	.
.	.	8c#	me	.	.	.
.	.	8c	a	.	.	.
.	.	8c#	look	.	.	.
.	.	8c	a	.	.	.
.	.	8c#	like	.	.	.
.	.	8c	I'm	.	.	.
=16	=16	=16	=16	=16	=16	=16
1DM	D:maj	8c#	way	.	28.012	.
.	.	8c#	out	.	.	.
.	.	8B	of	.	.	.
.	.	[8A	bounds	A	.	.
.	.	4A]	_	.	.	.
.	.	8F#	well	.	.	.
.	.	8E	_	.	.	.
=17	=17	=17	=17	=17	=17	=17
1AM	A:maj	8r	.	.	29.833	newline
.	.	8A	you	.	.	.
.	.	8A	let	.	.	.
.	.	8A	out	.	.	.
.	.	8A	one	.	.	.
.	.	4A	of	.	.	.
.	.	[8B	your	.	.	.
=18	=18	=18	=18	=18	=18	=18
1EM	E:maj	8B]	_	.	31.641	.
.	.	4.B	bored	.	.	.
.	.	4B	sighs	B	.	.
.	.	4r	.	.	.	.
=19	=19	=19	=19	=19	=19	=19
1F#m	F#:min	8r	.	.	33.448	.
.	.	8c#	Well	.	.	.
.	.	8c#	late	.	.	.
.	.	8c#	ly	.	.	.
.	.	8c#	when	.	.	.
.	.	8c	I	.	.	.
.	.	8c#	look	.	.	.
.	.	8c	in	.	.	.
=20	=20	=20	=20	=20	=20	=20
1DM	D:maj	8c#	to	.	35.256	.
.	.	4c#	your	.	.	.
.	.	[8A	eyes	B	.	.
.	.	8A]	_	.	.	.
.	.	8A	I'm	.	.	.
.	.	8B	go	.	.	.
.	.	8A	ing	.	.	.
=21	=21	=21	=21	=21	=21	=21
*>Letter>B	*>Letter>B	*>Letter>B	*>Letter>B	*>Letter>B	*>Letter>B	*>Letter>B
*>Label>Chorus	*>Label>Chorus	*>Label>Chorus	*>Label>Chorus	*>Label>Chorus	*>Label>Chorus	*>Label>Chorus
1AM	A:maj	4.A	down	A	37.063	newline
.	.	[8A	down	A	.	.
.	.	4A]	_	.	.	.
.	.	[4A	down	A	.	.
=22	=22	=22	=22	=22	=22	=22
1EM	E:maj	8A]	_	.	38.886	.
.	.	4.A	down	A	.	.
.	.	8r	.	.	.	.
.	.	8B	I'm	.	.	.
.	.	8B	go	.	.	.
.	.	8A	ing	.	.	.
=23	=23	=23	=23	=23	=23	=23
1F#m	F#:min	4.A	down	A	40.709	.
.	.	[8A	down	A	.	.
.	.	4A]	_	.	.	.
.	.	[4A	down	A	.	.
=24	=24	=24	=24	=24	=24	=24
1DM	D:maj	8A]	_	.	42.532	.
.	.	4.A	down	A	.	.
.	.	8r	.	.	.	.
.	.	8B	I'm	.	.	.
.	.	8B	go	.	.	.
.	.	8A	ing	.	.	.
=25	=25	=25	=25	=25	=25	=25
1AM	A:maj	4.A	down	A	44.355	newline
.	.	[8A	down	A	.	.
.	.	4A]	_	.	.	.
.	.	[4B	down	A	.	.
=26	=26	=26	=26	=26	=26	=26
1EM	E:maj	8B]	_	.	46.165	.
.	.	4.B	down	A	.	.
.	.	8r	.	.	.	.
.	.	8c#	I'm	.	.	.
.	.	8c#	go	.	.	.
.	.	8B	ing	.	.	.
=27	=27	=27	=27	=27	=27	=27
1F#m	F#:min	4.A	down	A	47.976	.
.	.	[8A	down	A	.	.
.	.	4A]	_	.	.	.
.	.	[4A	down	A	.	.
=28	=28	=28	=28	=28	=28	=28
1DM	D:maj	8A]	_	.	49.786	.
.	.	4.A	down	A	.	.
.	.	2r	.	.	.	.
=29	=29	=29	=29	=29	=29	=29
*>Letter>A	*>Letter>A	*>Letter>A	*>Letter>A	*>Letter>A	*>Letter>A	*>Letter>A
*>Label>Verse	*>Label>Verse	*>Label>Verse	*>Label>Verse	*>Label>Verse	*>Label>Verse	*>Label>Verse
1AM	A:maj	8r	.	.	51.597	newline
.	.	8A	We	.	.	.
.	.	8A	get	.	.	.
.	.	[8A	dresssed	.	.	.
.	.	4.A]	_	.	.	.
.	.	[8B	up	.	.	.
=30	=30	=30	=30	=30	=30	=30
1EM	E:maj	4B]	_	.	53.413	.
.	.	8B	and	.	.	.
.	.	4B	we	.	.	.
.	.	8B	go	.	.	.
.	.	4A	_	.	.	.
=31	=31	=31	=31	=31	=31	=31
1F#m	F#:min	4r	.	.	55.229	.
.	.	4c#	out	A	.	.
.	.	4r	.	.	.	.
.	.	8c#	ba	.	.	.
.	.	8c#	by	.	.	.
=32	=32	=32	=32	=32	=32	=32
1DM	D:maj	8c#	for	.	57.045	.
.	.	4B	the	.	.	.
.	.	[8A	night	B	.	.
.	.	4A]	_	.	.	.
.	.	4r	.	.	.	.
=33	=33	=33	=33	=33	=33	=33
1AM	A:maj	8r	.	.	58.862	newline
.	.	8A	we	.	.	.
.	.	8A	come	.	.	.
.	.	4A	home	.	.	.
.	.	8A	ear	.	.	.
.	.	8A	ly	.	.	.
.	.	[8B	burn	.	.	.
=34	=34	=34	=34	=34	=34	=34
1EM	E:maj	4B]	_	.	60.673	.
.	.	8B	ing	.	.	.
.	.	4c#	burn	.	.	.
.	.	[8A	ing	.	.	.
.	.	4A]	_	.	.	.
=35	=35	=35	=35	=35	=35	=35
1F#m	F#:min	4r	.	.	62.485	.
.	.	8c#	burn	.	.	.
.	.	8c#	ing	.	.	.
.	.	4c#	in	.	.	.
.	.	4c#	some	.	.	.
=36	=36	=36	=36	=36	=36	=36
1DM	D:maj	8c#	fi	.	64.297	.
.	.	8c#	re	.	.	.
.	.	8B	_	.	.	.
.	.	[8A	fight	B	.	.
.	.	4A]	_	.	.	.
.	.	4r	.	.	.	.
=37	=37	=37	=37	=37	=37	=37
1AM	A:maj	8r	.	.	66.109	newline
.	.	8A	I'm	.	.	.
.	.	8A	sick	.	.	.
.	.	8A	and	.	.	.
.	.	4A	tired	.	.	.
.	.	8A	of	.	.	.
.	.	8A	you	.	.	.
=38	=38	=38	=38	=38	=38	=38
1EM	E:maj	8B	set	.	67.912	.
.	.	8B	ting	.	.	.
.	.	8B	me	.	.	.
.	.	4B	up	.	.	.
.	.	[8A	_	.	.	.
.	.	4A]	_	.	.	.
=39	=39	=39	=39	=39	=39	=39
1F#m	F#:min	8r	.	.	69.716	.
.	.	8c#	Set'n	.	.	.
.	.	8c#	me	.	.	.
.	.	4c#	up	.	.	.
.	.	8c#	by	.	.	.
.	.	8c#	just	.	.	.
.	.	8c#	a	.	.	.
=40	=40	=40	=40	=40	=40	=40
1DM	D:maj	8c#	knock	.	71.52	.
.	.	8c	a	.	.	.
.	.	8c#	knock	.	.	.
.	.	8c	a	.	.	.
.	.	8c#	knock	.	.	.
.	.	8c#	in	.	.	.
.	.	8B	me	.	.	.
.	.	[8A	down	A	.	.
=41	=41	=41	=41	=41	=41	=41
*>Letter>B	*>Letter>B	*>Letter>B	*>Letter>B	*>Letter>B	*>Letter>B	*>Letter>B
*>Label>Chorus	*>Label>Chorus	*>Label>Chorus	*>Label>Chorus	*>Label>Chorus	*>Label>Chorus	*>Label>Chorus
1AM	A:maj	4.A]	_	.	73.324	newline
.	.	[8A	down	A	.	.
.	.	4A]	_	.	.	.
.	.	[4A	down	A	.	.
=42	=42	=42	=42	=42	=42	=42
1EM	E:maj	8A]	_	.	75.127	.
.	.	4.A	down	A	.	.
.	.	8r	.	.	.	.
.	.	8B	I'm	.	.	.
.	.	8B	go	.	.	.
.	.	8A	in	.	.	.
=43	=43	=43	=43	=43	=43	=43
1F#m	F#:min	4.A	down	A	76.931	.
.	.	[8A	down	A	.	.
.	.	4A]	_	.	.	.
.	.	[4A	down	A	.	.
=44	=44	=44	=44	=44	=44	=44
1DM	D:maj	8A]	_	.	78.734	.
.	.	4.A	down	A	.	.
.	.	8r	.	.	.	.
.	.	8B	I'm	.	.	.
.	.	8B	go	.	.	.
.	.	8A	in	.	.	.
=45	=45	=45	=45	=45	=45	=45
1AM	A:maj	4.A	down	.	80.538	newline
.	.	[8A	down	.	.	.
.	.	4A]	_	.	.	.
.	.	[4B	down	.	.	.
=46	=46	=46	=46	=46	=46	=46
1EM	E:maj	8B]	_	.	82.355	.
.	.	4.B	down	.	.	.
.	.	8r	.	.	.	.
.	.	8c#	I'm	.	.	.
.	.	8c#	go	.	.	.
.	.	8B	in	.	.	.
=47	=47	=47	=47	=47	=47	=47
1F#m	F#:min	4.A	down	.	84.173	.
.	.	[8A	down	.	.	.
.	.	4A]	_	.	.	.
.	.	[4A	down	.	.	.
=48	=48	=48	=48	=48	=48	=48
1DM	D:maj	8A]	_	.	85.991	.
.	.	4.A	down	.	.	.
.	.	2r	.	.	.	.
=49	=49	=49	=49	=49	=49	=49
*>Letter>B	*>Letter>B	*>Letter>B	*>Letter>B	*>Letter>B	*>Letter>B	*>Letter>B
*>Label>Solo	*>Label>Solo	*>Label>Solo	*>Label>Solo	*>Label>Solo	*>Label>Solo	*>Label>Solo
1AM	A:maj	1r	.	.	87.809	newline
=50	=50	=50	=50	=50	=50	=50
1EM	E:maj	1r	.	.	89.627	.
=51	=51	=51	=51	=51	=51	=51
1F#m	F#:min	1r	.	.	91.446	.
=52	=52	=52	=52	=52	=52	=52
1DM	D:maj	1r	.	.	93.265	.
=53	=53	=53	=53	=53	=53	=53
1AM	A:maj	1r	.	.	95.083	newline
=54	=54	=54	=54	=54	=54	=54
1EM	E:maj	1r	.	.	96.907	.
=55	=55	=55	=55	=55	=55	=55
1F#m	F#:min	1r	.	.	98.731	.
=56	=56	=56	=56	=56	=56	=56
1DM	D:maj	1r	.	.	100.555	.
=57	=57	=57	=57	=57	=57	=57
*>Letter>A	*>Letter>A	*>Letter>A	*>Letter>A	*>Letter>A	*>Letter>A	*>Letter>A
*>Label>Verse	*>Label>Verse	*>Label>Verse	*>Label>Verse	*>Label>Verse	*>Label>Verse	*>Label>Verse
1AM	A:5	8r	.	.	102.379	newline
.	.	4A	I	.	.	.
.	.	4.A	pull	.	.	.
.	.	8A	you	.	.	.
.	.	[8B	close	.	.	.
=58	=58	=58	=58	=58	=58	=58
1EM	E:5	8B]	_	.	104.19	.
.	.	4B	now	.	.	.
.	.	8B	ba-	.	.	.
.	.	4A	_	.	.	.
.	.	8A	-by	.	.	.
.	.	8r	.	.	.	.
=59	=59	=59	=59	=59	=59	=59
1F#m	F#:5	8r	.	.	106	.
.	.	8c#	but	.	.	.
.	.	8c#	when	.	.	.
.	.	8c	we	.	.	.
.	.	4c#	kiss	.	.	.
.	.	8c#	I	.	.	.
.	.	8c	can	.	.	.
=60	=60	=60	=60	=60	=60	=60
1DM	D:5	8c#	feel	.	107.81	.
.	.	8c#	a	.	.	.
.	.	8B	_	.	.	.
.	.	[8A	doubt	A	.	.
.	.	4A]	_	.	.	.
.	.	4r	.	.	.	.
=61	=61	=61	=61	=61	=61	=61
1AM	A:5	4r	.	.	109.621	newline
.	.	8A	I	.	.	.
.	.	8A	re	.	.	.
.	.	8A	mem	.	.	.
.	.	8A	ber	.	.	.
.	.	8A	back	.	.	.
.	.	[8B	when	.	.	.
=62	=62	=62	=62	=62	=62	=62
1EM	E:5	8B]	_	.	111.422	.
.	.	4B	we	.	.	.
.	.	[8c#	start	.	.	.
.	.	8c#]	_	.	.	.
.	.	4.A	ed	.	.	.
=63	=63	=63	=63	=63	=63	=63
1F#m	F#:5	8r	.	.	113.223	.
.	.	8c#	my	.	.	.
.	.	8c#	kiss	.	.	.
.	.	8c	es	.	.	.
.	.	8c#	used	.	.	.
.	.	8c	to	.	.	.
.	.	8c#	turn	.	.	.
.	.	8c	you	.	.	.
=64	=64	=64	=64	=64	=64	=64
1DM	D:5	8c#	in	.	115.024	.
.	.	8c#	side	.	.	.
.	.	8B	_	.	.	.
.	.	4.A	out	A	.	.
.	.	8F#	well	.	.	.
.	.	8E	_	.	.	.
=65	=65	=65	=65	=65	=65	=65
1AM	A:5	8r	.	.	116.825	newline
.	.	8A	I	.	.	.
.	.	8A	used	.	.	.
.	.	8A	to	.	.	.
.	.	4A	drive	.	.	.
.	.	8A	you	.	.	.
.	.	8A	to	.	.	.
=66	=66	=66	=66	=66	=66	=66
1EM	E:5	8B	work	.	118.635	.
.	.	8B	in	.	.	.
.	.	8B	the	.	.	.
.	.	4c#	morn	.	.	.
.	.	[8A	ing	.	.	.
.	.	4A]	_	.	.	.
=67	=67	=67	=67	=67	=67	=67
1F#m	F#:5	4r	.	.	120.446	.
.	.	8c#	Fri	.	.	.
.	.	8c#	day	.	.	.
.	.	8c#	night	.	.	.
.	.	8c	I'd	.	.	.
.	.	8c#	drive	.	.	.
.	.	8c	you	.	.	.
=68	=68	=68	=68	=68	=68	=68
1DM	D:5	8c#	all	.	122.256	.
.	.	8c#	a	.	.	.
.	.	8B	_	.	.	.
.	.	[8A	round	A	.	.
.	.	4A]	_	.	.	.
.	.	8F#	well	.	.	.
.	.	8E	_	.	.	.
=69	=69	=69	=69	=69	=69	=69
1AM	A:5	8r	.	.	124.066	newline
.	.	8A	You	.	.	.
.	.	8A	used	.	.	.
.	.	8A	to	.	.	.
.	.	4A	love	.	.	.
.	.	8A	to	.	.	.
.	.	[8B	drive	.	.	.
=70	=70	=70	=70	=70	=70	=70
1EM	E:5	4B]	_	.	125.855	.
.	.	8B	me	.	.	.
.	.	[8c#	wild	B	.	.
.	.	4c#]	_	.	.	.
.	.	8B	yeah	.	.	.
.	.	8A	_	.	.	.
=71	=71	=71	=71	=71	=71	=71
1F#m	F#:5	8r	.	.	127.643	.
.	.	8c#	but	.	.	.
.	.	8c#	late	.	.	.
.	.	8c#	ly	.	.	.
.	.	8c#	girl	.	.	.
.	.	8c	you	.	.	.
.	.	8c#	get	.	.	.
.	.	8c	your	.	.	.
=72	=72	=72	=72	=72	=72	=72
1DM	D:5	8c#	kicks	.	129.431	.
.	.	8c	from	.	.	.
.	.	8c#	just	.	.	.
.	.	8c	a	.	.	.
.	.	8c#	dri	.	.	.
.	.	8c	vin	.	.	.
.	.	8B	me	.	.	.
.	.	[8A	down	A	.	.
=73	=73	=73	=73	=73	=73	=73
*>Letter>B	*>Letter>B	*>Letter>B	*>Letter>B	*>Letter>B	*>Letter>B	*>Letter>B
*>Label>Chorus	*>Label>Chorus	*>Label>Chorus	*>Label>Chorus	*>Label>Chorus	*>Label>Chorus	*>Label>Chorus
1AM	A:maj	4.A]	_	.	131.219	newline
.	.	[8A	down	.	.	.
.	.	4A]	_	.	.	.
.	.	[4A	down	.	.	.
=74	=74	=74	=74	=74	=74	=74
1EM	E:maj	8A]	_	.	133.024	.
.	.	4.A	down	.	.	.
.	.	8r	.	.	.	.
.	.	8B	I'm	.	.	.
.	.	8B	go	.	.	.
.	.	8A	ing	.	.	.
=75	=75	=75	=75	=75	=75	=75
1F#m	F#:min	4.A	down	.	134.829	.
.	.	[8A	down	.	.	.
.	.	4A]	_	.	.	.
.	.	[4A	down	.	.	.
=76	=76	=76	=76	=76	=76	=76
1DM	D:maj	8A]	_	.	136.633	.
.	.	4.A	down	.	.	.
.	.	8r	.	.	.	.
.	.	8B	I'm	.	.	.
.	.	8B	go	.	.	.
.	.	8A	ing	.	.	.
=77	=77	=77	=77	=77	=77	=77
1AM	A:maj	4.A	down	.	138.438	newline
.	.	[8A	down	.	.	.
.	.	4A]	_	.	.	.
.	.	[4B	down	.	.	.
=78	=78	=78	=78	=78	=78	=78
1EM	E:maj	8B]	_	.	140.261	.
.	.	4.B	down	.	.	.
.	.	8r	.	.	.	.
.	.	8c#	I'm	.	.	.
.	.	8c#	go	.	.	.
.	.	8B	in	.	.	.
=79	=79	=79	=79	=79	=79	=79
1F#m	F#:min	4.A	down	.	142.083	.
.	.	[8A	down	.	.	.
.	.	4A]	_	.	.	.
.	.	[4A	down	.	.	.
=80	=80	=80	=80	=80	=80	=80
1DM	D:maj	8A]	_	.	143.905	.
.	.	4.A	_	.	.	.
.	.	8r	.	.	.	.
.	.	8B	I'm	.	.	.
.	.	8B	go	.	.	.
.	.	8A	ing	.	.	.
=81	=81	=81	=81	=81	=81	=81
*>Letter>B	*>Letter>B	*>Letter>B	*>Letter>B	*>Letter>B	*>Letter>B	*>Letter>B
*>Label>Chorus	*>Label>Chorus	*>Label>Chorus	*>Label>Chorus	*>Label>Chorus	*>Label>Chorus	*>Label>Chorus
1AM	A:5	4.A	down	.	145.727	newline
.	.	[8A	down	.	.	.
.	.	4A]	_	.	.	.
.	.	[4A	down	.	.	.
=82	=82	=82	=82	=82	=82	=82
1EM	E:5	8A]	_	.	147.527	.
.	.	4.A	down	.	.	.
.	.	8r	.	.	.	.
.	.	8B	I'm	.	.	.
.	.	8B	go	.	.	.
.	.	8A	ing	.	.	.
=83	=83	=83	=83	=83	=83	=83
1F#m	F#:5	4.A	down	.	149.326	.
.	.	[8A	down	.	.	.
.	.	4A]	_	.	.	.
.	.	[4A	down	.	.	.
=84	=84	=84	=84	=84	=84	=84
1DM	D:5	8A]	_	.	151.126	.
.	.	4.A	down	.	.	.
.	.	8r	.	.	.	.
.	.	8B	I'm	.	.	.
.	.	8B	go	.	.	.
.	.	8A	ing	.	.	.
=85	=85	=85	=85	=85	=85	=85
1AM	A:5	4.A	down	.	152.926	newline
.	.	[8A	down	.	.	.
.	.	4A]	_	.	.	.
.	.	[4B	down	.	.	.
=86	=86	=86	=86	=86	=86	=86
1EM	E:5	8B]	_	.	154.72	.
.	.	4.B	down	.	.	.
.	.	8r	.	.	.	.
.	.	8c#	I'm	.	.	.
.	.	8c#	go	.	.	.
.	.	8B	ing	.	.	.
=87	=87	=87	=87	=87	=87	=87
1F#m	F#:5	4.A	down	.	156.515	.
.	.	[8c#	down	.	.	.
.	.	8c#]	_	.	.	.
.	.	8c#	a	.	.	.
.	.	8c#	da	.	.	.
.	.	8c#	ba	.	.	.
=88	=88	=88	=88	=88	=88	=88
1DM	D:5	8c#	do	.	158.31	.
.	.	8c#	da	.	.	.
.	.	8B	_	.	.	.
.	.	8A	down	.	.	.
.	.	8r	.	.	.	.
.	.	8B	I'm	.	.	.
.	.	8B	go	.	.	.
.	.	8A	ing	.	.	.
=89	=89	=89	=89	=89	=89	=89
*>Letter>B	*>Letter>B	*>Letter>B	*>Letter>B	*>Letter>B	*>Letter>B	*>Letter>B
*>Label>Chorus	*>Label>Chorus	*>Label>Chorus	*>Label>Chorus	*>Label>Chorus	*>Label>Chorus	*>Label>Chorus
1AM	A:maj	4.A	down	.	160.105	newline
.	.	[8e	down	.	.	.
.	.	4e]	_	.	.	.
.	.	[4B	down	.	.	.
=90	=90	=90	=90	=90	=90	=90
1EM	E:maj	8B]	_	.	161.923	.
.	.	4.B	down	.	.	.
.	.	8r	.	.	.	.
.	.	8c#	I'm	.	.	.
.	.	8c#	go	.	.	.
.	.	8B	ing	.	.	.
=91	=91	=91	=91	=91	=91	=91
1F#m	F#:min	4.A	down	.	163.74	.
.	.	[8c#	hey	.	.	.
.	.	8c#]	_	.	.	.
.	.	8c#	a	.	.	.
.	.	8c#	bap	.	.	.
.	.	8c#	a	.	.	.
=92	=92	=92	=92	=92	=92	=92
1DM	D:maj	8c#	do	.	165.558	.
.	.	8c#	dah	.	.	.
.	.	8B	_	.	.	.
.	.	8A	down	.	.	.
.	.	8r	.	.	.	.
.	.	8B	I'm	.	.	.
.	.	8B	go	.	.	.
.	.	8A	in	.	.	.
=93	=93	=93	=93	=93	=93	=93
1AM	A:maj	4.A	down	.	167.375	newline
.	.	[8e	down	.	.	.
.	.	4e]	_	.	.	.
.	.	[4B	down	.	.	.
=94	=94	=94	=94	=94	=94	=94
1EM	E:maj	8B]	_	.	169.178	.
.	.	8r	.	.	.	.
.	.	4c#	hey	.	.	.
.	.	8r	.	.	.	.
.	.	8c#	I'm	.	.	.
.	.	8c#	go	.	.	.
.	.	8B	ing	.	.	.
=95	=95	=95	=95	=95	=95	=95
1F#m	F#:min	4.A	down	.	170.981	.
.	.	[8A	down	.	.	.
.	.	8A]	_	.	.	.
.	.	8c#	hey	.	.	.
.	.	8c#	bap	.	.	.
.	.	8B	a	.	.	.
=96	=96	=96	=96	=96	=96	=96
1DM	D:maj	8r	.	.	172.784	.
.	.	8c#	hey	.	.	.
.	.	8c#	bap	.	.	.
.	.	8c#	a	.	.	.
.	.	8c#	do	.	.	.
.	.	8c#	dah	.	.	.
.	.	8B	_	.	.	.
.	.	8A	down	.	.	.
=97	=97	=97	=97	=97	=97	=97
*>Letter>B	*>Letter>B	*>Letter>B	*>Letter>B	*>Letter>B	*>Letter>B	*>Letter>B
*>Label>Solo	*>Label>Solo	*>Label>Solo	*>Label>Solo	*>Label>Solo	*>Label>Solo	*>Label>Solo
1AM	A:maj	4r	.	.	174.586	newline
.	.	8r	.	.	.	.
.	.	[8e	hey	.	.	.
.	.	4e]	_	.	.	.
.	.	[4B	hmm	.	.	.
=98	=98	=98	=98	=98	=98	=98
1EM	E:maj	8B]	_	.	176.389	.
.	.	8B	de	.	.	.
.	.	4B	bop	.	.	.
.	.	8B	bop	.	.	.
.	.	8A	a	.	.	.
.	.	8A	well	.	.	.
.	.	8A	a	.	.	.
=99	=99	=99	=99	=99	=99	=99
1F#m	F#:min	4A	down	.	178.191	.
.	.	8r	.	.	.	.
.	.	[8f#	hey	.	.	.
.	.	8f#]	_	.	.	.
.	.	[8c#	hey	.	.	.
.	.	8c#]	_	.	.	.
.	.	[8B	hmm	.	.	.
=100	=100	=100	=100	=100	=100	=100
1DM	D:maj	8B]	_	.	179.994	.
.	.	8B	de	.	.	.
.	.	4B	bop	.	.	.
.	.	8B	bop	.	.	.
.	.	8A	I	.	.	.
.	.	8A	said	.	.	.
.	.	8A	a	.	.	.
=101	=101	=101	=101	=101	=101	=101
1AM	A:maj	4A	down	.	181.797	newline
.	.	8r	.	.	.	.
.	.	[8f#	hey	.	.	.
.	.	8f#]	_	.	.	.
.	.	[8c#	hey	.	.	.
.	.	8c#]	_	.	.	.
.	.	[8B	hmm	.	.	.
=102	=102	=102	=102	=102	=102	=102
1EM	E:maj	8B]	_	.	183.559	.
.	.	8B	de	.	.	.
.	.	4B	bop	.	.	.
.	.	8B	bop	.	.	.
.	.	8A	a	.	.	.
.	.	8A	well	.	.	.
.	.	8A	a	.	.	.
=103	=103	=103	=103	=103	=103	=103
1F#m	F#:min	8A	down	.	185.322	.
.	.	4r	.	.	.	.
.	.	[8c#	hey	.	.	.
.	.	8c#]	_	.	.	.
.	.	[8B	hey	.	.	.
.	.	8B]	_	.	.	.
.	.	[8B	oh	.	.	.
=104	=104	=104	=104	=104	=104	=104
1DM	D:maj	8B]	_	.	187.085	.
.	.	8A	a	.	.	.
.	.	4A	bop	.	.	.
.	.	4A	bop	.	.	.
.	.	4A	yeah	.	.	.
=105	=105	=105	=105	=105	=105	=105
*>Label>>Fadeout	*>Label>>Fadeout	*>Label>>Fadeout	*>Label>>Fadeout	*>Label>>Fadeout	*>Label>>Fadeout	*>Label>>Fadeout
1AM	A:maj	4r	.	.	188.848	newline
.	.	8r	.	.	.	.
.	.	[8e	hey	.	.	.
.	.	4e]	_	.	.	.
.	.	[4B	hmm	.	.	.
=106	=106	=106	=106	=106	=106	=106
1EM	E:maj	8B]	_	.	190.639	.
.	.	8B	hey	.	.	.
.	.	4r	.	.	.	.
.	.	8r	.	.	.	.
.	.	[8a	say'n	.	.	.
.	.	8a]	_	.	.	.
.	.	[8f#	down	.	.	.
=107	=107	=107	=107	=107	=107	=107
1F#m	F#:min	8f#]	_	.	192.431	.
.	.	[8e	down	.	.	.
.	.	8e]	_	.	.	.
.	.	[8c#	down	.	.	.
.	.	8c#]	_	.	.	.
.	.	[8B	down	.	.	.
.	.	8B]	_	.	.	.
.	.	8B	down	.	.	.
=108	=108	=108	=108	=108	=108	=108
1DM	D:maj	4A	_	.	194.222	.
.	.	4r	.	.	.	.
.	.	8r	.	.	.	.
.	.	[8a	hey	.	.	.
.	.	8a]	_	.	.	.
.	.	[8f#	down	.	.	.
=109	=109	=109	=109	=109	=109	=109
1AM	A:maj	8f#]	_	.	196.013	newline
.	.	[8e	down	.	.	.
.	.	4e]	_	.	.	.
.	.	2r	.	.	.	.
=110	=110	=110	=110	=110	=110	=110
1EM	E:maj	2r	.	.	197.804	.
.	.	8r	.	.	.	.
.	.	[8a	Say'n	.	.	.
.	.	8a]	_	.	.	.
.	.	[8f#	down	.	.	.
=111	=111	=111	=111	=111	=111	=111
1F#m	F#:min	8f#]	_	.	199.594	.
.	.	[8e	down	.	.	.
.	.	8e]	_	.	.	.
.	.	[8c#	down	.	.	.
.	.	8c#]	_	.	.	.
.	.	[8B	down	.	.	.
.	.	8B]	_	.	.	.
.	.	8B	down	.	.	.
=112	=112	=112	=112	=112	=112	=112
1DM	D:maj	4A	_	.	201.385	.
.	.	4r	.	.	.	.
.	.	8r	.	.	.	.
.	.	[8c#	hey	.	.	.
.	.	8c#]	_	.	.	.
.	.	[8B	hey	.	.	.
=113	=113	=113	=113	=113	=113	=113
1AM	A:maj	8B]	_	.	203.175	newline
.	.	8B	hmm	.	.	.
.	.	8A	_	.	.	.
.	.	2r	.	.	.	.
.	.	8r	.	.	.	.
=114	=114	=114	=114	=114	=114	=114
1EM	E:maj	1r	.	.	203.726	.
=115	=115	=115	=115	=115	=115	=115
1F#m	F#:min	1r	.	.	204.278	.
=116	=116	=116	=116	=116	=116	=116
1DM	D:maj	1r	.	.	204.829	.
1r;	1r	r;	.	.	205.38	.
1r;	1r	r;	.	.	211.984	.
*-	*-	*-	*-	*-	*-	*-
!!!BillboardChartDate: 1985/11/09
!!!BillboardPeak: 9
!!!BillboardWeeksOnChart: 13
!!!COC: Bruce Springsteen
!!!ENC: Nathaniel Condit-Schultz
!!!EST: Awating manual error checking and editing.
!!!OTL: I m Goin  Down
!!!RDF**chordsym: original McGill chord annotation + (implied pitch class set, with bass pitch in first position)
!!!RDF**harmony: **recip + pitch class of root + harmonic quality
!!!RDF**leadinstrument: original McGill primary instrumentation annotation
!!!RDF**phrase: newline = linebreak in original McGill transcription
!!!RDF**timestamp: McGill audio timestamp in seconds
!!!RDT: 2017/01/12/
!!!SampleActualRank: 32
!!!SampleID#: 0426
!!!SampleTargetRank: 32
!!!MBID: 9b4eae4f-fc37-4078-92de-6bd6a1ab21ec
